digital/Imbassy-X-Files/65ef0811cc67439994568a45/65ef0811cc67439994568f5e_shopify.svg

<svg fill="none" height="56" viewBox="0 0 169 56" width="169" xmlns="http://www.w3.org/2000/svg"><g fill="#fff"><path d="m17.293 41.2227 6.9311-1.7157s-2.9842-20.0948-3.0032-20.2326c-.019-.1379-.1399-.2144-.2402-.2227-.0997-.0083-2.0512-.0379-2.0512-.0379s-1.1894-1.1505-1.6365-1.5861z"/><path d="m16.5384 17.1973c-.0015.0008-.3064.0947-.8198.253-.0859-.2772-.2122-.618-.3924-.9604-.581-1.1043-1.432-1.6883-2.4602-1.6898-.0015 0-.0023 0-.0038 0-.0715 0-.1422.0068-.2137.0128-.0304-.0363-.0609-.0719-.0928-.1068-.4479-.4772-1.0222-.7097-1.7104-.6892-1.3278.0378-2.65035.993-3.72265 2.6896-.75443 1.1937-1.32862 2.6935-1.49136 3.8546-1.52483.4704-2.59105.7991-2.61462.8067-.76963.2409-.79397.2643-.89436.9869-.07529.5461-2.0891069 16.0554-2.0891069 16.0554l16.7075969 2.8775v-24.1243c-.0821.0053-.156.0204-.2024.034zm-3.858 1.19c-.8844.2727-1.8496.5703-2.81765.8687.27225-1.0384.78865-2.0723 1.42285-2.7502.2358-.2522.5659-.5332.9568-.6938.3673.7635.4471 1.8444.438 2.5753zm-1.8092-3.4903c.3118-.0068.5741.0614.7985.2083-.359.1856-.7058.4522-1.0312.7999-.84345.9013-1.4899 2.3003-1.74771 3.65-.80382.2477-1.59023.4909-2.31418.7136.45703-2.1247 2.24501-5.3127 4.29459-5.3718zm-2.58344 12.1031c.08974 1.4157 3.82914 1.7247 4.03904 5.0407.165 2.6086-1.3895 4.3932-3.62916 4.534-2.68838.169-4.16833-1.411-4.16833-1.411l.56962-2.414s1.48982 1.1195 2.68227 1.0445c.77878-.0492 1.05713-.6802 1.02902-1.1263-.11715-1.8466-3.16222-1.7375-3.3546-4.7718-.16201-2.5534 1.52177-5.1408 5.23688-5.3741 1.4312-.0901 2.1644.2743 2.1644.2743l-.8496 3.1652s-.9475-.4294-2.07082-.3589c-1.64802.1037-1.66546 1.1383-1.64872 1.3974zm5.27554-8.8847c-.0098-.6696-.0897-1.6013-.403-2.4064 1.0076.1901 1.5035 1.3255 1.7134 2.0027-.3886.1189-.8313.2552-1.3104.4037z"/><path d="m100.104 41.4027 2.34-12.4292c.294-1.5595.513-2.9432.659-4.0136h1.002l-.366 2.3591h.048c1.051-1.5807 2.516-2.6022 4.079-2.6022 2.223 0 3.053 1.8969 3.053 3.7945 0 3.9406-2.711 8.3646-6.448 8.3646-1.148 0-1.905-.2672-2.344-.5104h-.049l-.925 5.0329zm2.197-6.1054c.538.4132 1.319.6564 2.272.6564 3.101 0 5.251-4.378 5.251-7.3722 0-1.3865-.538-2.9191-2.271-2.9191-1.662 0-3.835 2.0919-4.494 5.6192z"/><path d="m119.003 36.6336c-.025-.7053.121-1.7998.292-3.1374h-.047c-1.344 2.5781-2.833 3.3806-4.372 3.3806-1.779 0-2.857-1.4596-2.857-3.5514 0-3.9647 2.857-8.6106 7.401-8.6106.831 0 1.759.1461 2.369.3403l-1.245 6.3004c-.415 2.1648-.562 4.0405-.513 5.2781zm1.566-10.8002c-.27-.0971-.684-.1701-1.418-.1701-3.37 0-6.007 3.7463-6.032 7.4189-.024 1.5085.415 2.8702 2.003 2.8702 1.905 0 4.057-2.8454 4.616-5.8623z"/><path d="m122.787 36.6336 1.49-7.857c.293-1.4836.465-2.7971.562-3.8186h.977c-.098.7542-.196 1.5326-.342 2.5299h.049c.732-1.5595 1.88-2.7731 3.345-2.7731.148.0014.295.0176.44.0482l-.196 1.0952c-.135-.0314-.275-.0478-.415-.0489-1.538 0-3.248 2.3109-3.737 4.8911l-1.099 5.9353z"/><path d="m133.753 22.3809-.513 2.5788h2.76l-.195.9002h-2.76l-1.295 6.9568c-.146.7798-.244 1.3865-.244 2.0188 0 .6812.317 1.0945 1.05 1.0945.391 0 .635-.0241.854-.0971l.072.8506c-.373.1112-.76.1685-1.148.1701-1.393 0-1.93-.9215-1.93-1.8969 0-.6329.071-1.2412.269-2.1407l1.319-6.9568h-1.685l.17-.9002h1.708l.391-2.0919z"/><path d="m135.731 36.6336 1.566-8.2461c.237-1.1334.417-2.278.538-3.4295h.976l-.319 2.3839h.049c1.025-1.7013 2.491-2.6271 4.078-2.6271 1.148 0 2.614.7294 2.614 2.9432 0 .5834-.098 1.1675-.221 1.7998l-1.343 7.1758h-1.05l1.368-7.1758c.109-.5607.166-1.1302.171-1.7012 0-1.2164-.489-2.0919-1.93-2.0919-1.566 0-3.761 1.9459-4.27 4.7678l-1.148 6.2025z"/><path d="m153.829 35.9772c-.611.3892-1.735.8755-3.2.8755-2.736 0-3.688-2.1408-3.688-4.3787 0-3.3564 2.345-7.7592 5.715-7.7592 1.93 0 2.736 1.2647 2.736 2.5519 0 2.9673-3.417 3.7946-7.254 3.7705-.122.5352-.143 2.0677.098 2.8943.415 1.3383 1.319 1.9706 2.562 1.9706 1.294 0 2.174-.4622 2.711-.7798zm-1.368-10.3139c-1.807 0-3.444 1.9458-4.152 4.4516 3.053.0241 5.984-.4869 5.984-2.7978 0-1.0945-.733-1.6538-1.832-1.6538z"/><path d="m155.979 36.6336 1.49-7.857c.293-1.4836.464-2.7971.561-3.8186h.977c-.098.7542-.195 1.5326-.342 2.5299h.049c.733-1.5595 1.881-2.7731 3.345-2.7731.149.0014.296.0176.44.0482l-.195 1.0952c-.136-.0314-.276-.0478-.415-.0489-1.539 0-3.249 2.3109-3.737 4.8911l-1.099 5.9353z"/><path d="m162.011 35.2714c.617.4034 1.338.6227 2.076.6323 1.539 0 2.562-1.0945 2.562-2.4102 0-1.1682-.488-1.8735-1.587-2.5788-1.148-.7542-1.784-1.7998-1.784-2.8702 0-1.8246 1.466-3.3316 3.517-3.3316.806 0 1.613.2672 1.954.5352l-.391.9009c-.367-.219-1.002-.4862-1.686-.4862-1.416 0-2.344.9732-2.344 2.1889 0 1.0952.611 1.7013 1.588 2.3393 1.123.7542 1.807 1.8238 1.807 2.992 0 2.3591-1.734 3.6727-3.737 3.6727-1.05 0-1.978-.3892-2.369-.7054z"/><path d="m34.134 29.5512c-.8475-.4579-1.2811-.8442-1.2811-1.3752 0-.6755.6058-1.1094 1.5511-1.1094 1.1002 0 2.0832.458 2.0832.458l.7693-2.3641s-.7118-.555-2.81-.555c-2.918 0-4.9422 1.6644-4.9422 4.005 0 1.327.9452 2.3393 2.2064 3.0637 1.017.5792 1.3809.9924 1.3809 1.5928 0 .6274-.5089 1.1342-1.4535 1.1342-1.4078 0-2.7373-.7237-2.7373-.7237l-.8256 2.364s1.2285.8202 3.2946.8202c3.0041 0 5.1599-1.4716 5.1599-4.1256.0029-1.4234-1.0874-2.4371-2.3957-3.1849z"/><path d="m46.1009 24.5785c-1.4776 0-2.6404.6997-3.5366 1.7609l-.0492-.0234 1.2811-6.6832h-3.3372l-3.2461 17.0127h3.3452l1.1136-5.8127c.4364-2.1974 1.5754-3.5443 2.6408-3.5443.7507 0 1.0418.5069 1.0418 1.2306 0 .4941-.0492.987-.146 1.4716l-1.2616 6.6541h3.3449l1.3075-6.876c.1448-.7155.2259-1.4422.2428-2.1719-.0035-1.8842-.9973-3.0184-2.741-3.0184z"/><path d="m56.3975 24.5781c-4.0212 0-6.6846 3.6216-6.6846 7.6508 0 2.5816 1.5986 4.6565 4.6029 4.6565 3.9487 0 6.6128-3.5223 6.6128-7.6479-.0016-2.391-1.4064-4.6594-4.5311-4.6594zm-1.6469 9.7469c-1.1386 0-1.6235-.9648-1.6235-2.1713 0-1.9061.9964-5.018 2.81-5.018 1.1872 0 1.5744 1.013 1.5744 2.0025 0 2.0536-.9929 5.1896-2.7609 5.1896z"/><path d="m69.4769 24.5781c-2.2567 0-3.5378 1.9848-3.5378 1.9848h-.0486l.1936-1.7856h-2.9538c-.1422 1.2051-.4118 3.0403-.6782 4.4155l-2.3251 12.1797h3.3451l.9201-4.9216h.0712s.6863.4345 1.9622.4345c3.9247 0 6.492-4.0051 6.492-8.0583-.0035-2.2436-.9936-4.249-3.4407-4.249zm-3.1969 9.7979c-.5032.0074-.9926-.1634-1.3808-.482l.5572-3.1126c.3872-2.0749 1.4775-3.45 2.6398-3.45 1.0178 0 1.3325.9406 1.3325 1.8338-.0023 2.1471-1.2834 5.2108-3.1487 5.2108z"/><path d="m77.6896 19.8027c-.2533-.0007-.5044.0489-.7386.1459-.2341.097-.4463.2396-.6249.4193-.1779.1797-.3181.393-.413.6274-.094.2344-.1409.4852-.1364.7377 0 .9924.6296 1.6644 1.5743 1.6644h.0482c1.0422 0 1.9383-.6996 1.9622-1.9302 0-.9648-.6539-1.6645-1.6718-1.6645z"/><path d="m73.0146 36.644h3.343l2.2769-11.7983h-3.3673z"/><path d="m87.137 24.8214h-2.3252l.1211-.5543c.1936-1.1342.8719-2.1479 1.9865-2.1479.3623.0006.723.0578 1.0673.1694l.6521-2.6022s-.5814-.2899-1.8172-.2899c-1.1862 0-2.3736.3381-3.2694 1.1101-1.1389.9647-1.6721 2.364-1.9383 3.764l-.0968.5544h-1.55l-.4847 2.5093h1.5501l-1.7686 9.313h3.3452l1.7644-9.3165h2.3009z"/><path d="m95.18 24.8457s-2.0897 5.2456-3.0283 8.1065h-.0476c-.0648-.9215-.8242-8.1065-.8242-8.1065h-3.5126l2.0108 10.8328c.0485.241.0243.3863-.0713.5551-.3878.7478-1.0418 1.4715-1.8171 2.0025-.6297.4586-1.3322.7478-1.8887.9406l.9201 2.8234c.6785-.1418 2.0832-.7003 3.2742-1.8097 1.5258-1.4234 2.9308-3.6194 4.3841-6.6108l4.094-8.7339z"/></g></svg>

<svg width="169" height="56" viewBox="0 0 169 56" fill="none" xmlns="http://www.w3.org/2000/svg">
<path d="M17.293 41.2227L24.2241 39.507C24.2241 39.507 21.2399 19.4122 21.2209 19.2744C21.2019 19.1365 21.081 19.06 20.9807 19.0517C20.881 19.0434 18.9295 19.0138 18.9295 19.0138C18.9295 19.0138 17.7401 17.8633 17.293 17.4277V41.2227Z" fill="white"/>
<path d="M16.5384 17.1973C16.5369 17.1981 16.232 17.292 15.7186 17.4503C15.6327 17.1731 15.5064 16.8323 15.3262 16.4899C14.7452 15.3856 13.8942 14.8016 12.866 14.8001C12.8645 14.8001 12.8637 14.8001 12.8622 14.8001C12.7907 14.8001 12.72 14.8069 12.6485 14.8129C12.6181 14.7766 12.5876 14.741 12.5557 14.7061C12.1078 14.2289 11.5335 13.9964 10.8453 14.0169C9.5175 14.0547 8.19495 15.0099 7.12265 16.7065C6.36822 17.9002 5.79403 19.4 5.63129 20.5611C4.10646 21.0315 3.04024 21.3602 3.01667 21.3678C2.24704 21.6087 2.2227 21.6321 2.12231 22.3547C2.04702 22.9008 0.0332031 38.4101 0.0332031 38.4101L16.7408 41.2876V17.1633C16.6587 17.1686 16.5848 17.1837 16.5384 17.1973ZM12.6804 18.3873C11.796 18.66 10.8308 18.9576 9.86275 19.256C10.135 18.2176 10.6514 17.1837 11.2856 16.5058C11.5214 16.2536 11.8515 15.9726 12.2424 15.812C12.6097 16.5755 12.6895 17.6564 12.6804 18.3873ZM10.8712 14.897C11.183 14.8902 11.4453 14.9584 11.6697 15.1053C11.3107 15.2909 10.9639 15.5575 10.6385 15.9052C9.79505 16.8065 9.1486 18.2055 8.89079 19.5552C8.08697 19.8029 7.30056 20.0461 6.57661 20.2688C7.03364 18.1441 8.82162 14.9561 10.8712 14.897ZM8.28776 27.0001C8.3775 28.4158 12.1169 28.7248 12.3268 32.0408C12.4918 34.6494 10.9373 36.434 8.69764 36.5748C6.00926 36.7438 4.52931 35.1638 4.52931 35.1638L5.09893 32.7498C5.09893 32.7498 6.58875 33.8693 7.7812 33.7943C8.55998 33.7451 8.83833 33.1141 8.81022 32.668C8.69307 30.8214 5.648 30.9305 5.45562 27.8962C5.29361 25.3428 6.97739 22.7554 10.6925 22.5221C12.1237 22.432 12.8569 22.7964 12.8569 22.7964L12.0073 25.9616C12.0073 25.9616 11.0598 25.5322 9.93648 25.6027C8.28846 25.7064 8.27102 26.741 8.28776 27.0001ZM13.5633 18.1154C13.5535 17.4458 13.4736 16.5141 13.1603 15.709C14.1679 15.8991 14.6638 17.0345 14.8737 17.7117C14.4851 17.8306 14.0424 17.9669 13.5633 18.1154Z" fill="white"/>
<path d="M100.104 41.4027L102.444 28.9735C102.738 27.414 102.957 26.0303 103.103 24.9599H104.105L103.739 27.319H103.787C104.838 25.7383 106.303 24.7168 107.866 24.7168C110.089 24.7168 110.919 26.6137 110.919 28.5113C110.919 32.4519 108.208 36.8759 104.471 36.8759C103.323 36.8759 102.566 36.6087 102.127 36.3655H102.078L101.153 41.3984L100.104 41.4027ZM102.301 35.2973C102.839 35.7105 103.62 35.9537 104.573 35.9537C107.674 35.9537 109.824 31.5757 109.824 28.5815C109.824 27.195 109.286 25.6624 107.553 25.6624C105.891 25.6624 103.718 27.7543 103.059 31.2816L102.301 35.2973Z" fill="white"/>
<path d="M119.003 36.6336C118.978 35.9283 119.124 34.8338 119.295 33.4962H119.248C117.904 36.0743 116.415 36.8768 114.876 36.8768C113.097 36.8768 112.019 35.4172 112.019 33.3254C112.019 29.3607 114.876 24.7148 119.42 24.7148C120.251 24.7148 121.179 24.8609 121.789 25.0551L120.544 31.3555C120.129 33.5203 119.982 35.396 120.031 36.6336H119.003ZM120.569 25.8334C120.299 25.7363 119.885 25.6633 119.151 25.6633C115.781 25.6633 113.144 29.4096 113.119 33.0822C113.095 34.5907 113.534 35.9524 115.122 35.9524C117.027 35.9524 119.179 33.107 119.738 30.0901L120.569 25.8334Z" fill="white"/>
<path d="M122.787 36.6336L124.277 28.7766C124.57 27.293 124.742 25.9795 124.839 24.958H125.816C125.718 25.7122 125.62 26.4906 125.474 27.4879H125.523C126.255 25.9284 127.403 24.7148 128.868 24.7148C129.016 24.7162 129.163 24.7324 129.308 24.763L129.112 25.8582C128.977 25.8268 128.837 25.8104 128.697 25.8093C127.159 25.8093 125.449 28.1202 124.96 30.7004L123.861 36.6357L122.787 36.6336Z" fill="white"/>
<path d="M133.753 22.3809L133.24 24.9597H136L135.805 25.8599H133.045L131.75 32.8167C131.604 33.5965 131.506 34.2032 131.506 34.8355C131.506 35.5167 131.823 35.93 132.556 35.93C132.947 35.93 133.191 35.9059 133.41 35.8329L133.482 36.6835C133.109 36.7947 132.722 36.852 132.334 36.8536C130.941 36.8536 130.404 35.9321 130.404 34.9567C130.404 34.3238 130.475 33.7155 130.673 32.816L131.992 25.8592H130.307L130.477 24.959H132.185L132.576 22.8671L133.753 22.3809Z" fill="white"/>
<path d="M135.731 36.6336L137.297 28.3875C137.534 27.2541 137.714 26.1095 137.835 24.958H138.811L138.492 27.3419H138.541C139.566 25.6406 141.032 24.7148 142.619 24.7148C143.767 24.7148 145.233 25.4442 145.233 27.658C145.233 28.2414 145.135 28.8255 145.012 29.4578L143.669 36.6336H142.619L143.987 29.4578C144.096 28.8971 144.153 28.3276 144.158 27.7566C144.158 26.5402 143.669 25.6647 142.228 25.6647C140.662 25.6647 138.467 27.6106 137.958 30.4325L136.81 36.635L135.731 36.6336Z" fill="white"/>
<path d="M153.829 35.9772C153.218 36.3664 152.094 36.8527 150.629 36.8527C147.893 36.8527 146.941 34.7119 146.941 32.474C146.941 29.1176 149.286 24.7148 152.656 24.7148C154.586 24.7148 155.392 25.9795 155.392 27.2667C155.392 30.234 151.975 31.0613 148.138 31.0372C148.016 31.5724 147.995 33.1049 148.236 33.9315C148.651 35.2698 149.555 35.9021 150.798 35.9021C152.092 35.9021 152.972 35.4399 153.509 35.1223L153.829 35.9772ZM152.461 25.6633C150.654 25.6633 149.017 27.6091 148.309 30.1149C151.362 30.139 154.293 29.628 154.293 27.3171C154.293 26.2226 153.56 25.6633 152.461 25.6633Z" fill="white"/>
<path d="M155.979 36.6336L157.469 28.7766C157.762 27.293 157.933 25.9795 158.03 24.958H159.007C158.909 25.7122 158.812 26.4906 158.665 27.4879H158.714C159.447 25.9284 160.595 24.7148 162.059 24.7148C162.208 24.7162 162.355 24.7324 162.499 24.763L162.304 25.8582C162.168 25.8268 162.028 25.8104 161.889 25.8093C160.35 25.8093 158.64 28.1202 158.152 30.7004L157.053 36.6357L155.979 36.6336Z" fill="white"/>
<path d="M162.011 35.2714C162.628 35.6748 163.349 35.8941 164.087 35.9037C165.626 35.9037 166.649 34.8092 166.649 33.4935C166.649 32.3253 166.161 31.62 165.062 30.9147C163.914 30.1605 163.278 29.1149 163.278 28.0445C163.278 26.2199 164.744 24.7129 166.795 24.7129C167.601 24.7129 168.408 24.9801 168.749 25.2481L168.358 26.149C167.991 25.93 167.356 25.6628 166.672 25.6628C165.256 25.6628 164.328 26.636 164.328 27.8517C164.328 28.9469 164.939 29.553 165.916 30.191C167.039 30.9452 167.723 32.0148 167.723 33.183C167.723 35.5421 165.989 36.8557 163.986 36.8557C162.936 36.8557 162.008 36.4665 161.617 36.1503L162.011 35.2714Z" fill="white"/>
<path d="M34.134 29.5512C33.2865 29.0933 32.8529 28.707 32.8529 28.176C32.8529 27.5005 33.4587 27.0666 34.404 27.0666C35.5042 27.0666 36.4872 27.5246 36.4872 27.5246L37.2565 25.1605C37.2565 25.1605 36.5447 24.6055 34.4465 24.6055C31.5285 24.6055 29.5043 26.2699 29.5043 28.6105C29.5043 29.9375 30.4495 30.9498 31.7107 31.6742C32.7277 32.2534 33.0916 32.6666 33.0916 33.267C33.0916 33.8944 32.5827 34.4012 31.6381 34.4012C30.2303 34.4012 28.9008 33.6775 28.9008 33.6775L28.0752 36.0415C28.0752 36.0415 29.3037 36.8617 31.3698 36.8617C34.3739 36.8617 36.5297 35.3901 36.5297 32.7361C36.5326 31.3127 35.4423 30.299 34.134 29.5512Z" fill="white"/>
<path d="M46.1009 24.5785C44.6233 24.5785 43.4605 25.2782 42.5643 26.3394L42.5151 26.316L43.7962 19.6328H40.459L37.2129 36.6455H40.5581L41.6717 30.8328C42.1081 28.6354 43.2471 27.2885 44.3125 27.2885C45.0632 27.2885 45.3543 27.7954 45.3543 28.5191C45.3543 29.0132 45.3051 29.5061 45.2083 29.9907L43.9467 36.6448H47.2916L48.5991 29.7688C48.7439 29.0533 48.825 28.3266 48.8419 27.5969C48.8384 25.7127 47.8446 24.5785 46.1009 24.5785Z" fill="white"/>
<path d="M56.3975 24.5781C52.3763 24.5781 49.7129 28.1997 49.7129 32.2289C49.7129 34.8105 51.3115 36.8854 54.3158 36.8854C58.2645 36.8854 60.9286 33.3631 60.9286 29.2375C60.927 26.8465 59.5222 24.5781 56.3975 24.5781ZM54.7506 34.325C53.612 34.325 53.1271 33.3602 53.1271 32.1537C53.1271 30.2476 54.1235 27.1357 55.9371 27.1357C57.1243 27.1357 57.5115 28.1487 57.5115 29.1382C57.5115 31.1918 56.5186 34.3278 54.7506 34.3278V34.325Z" fill="white"/>
<path d="M69.4769 24.5781C67.2202 24.5781 65.9391 26.5629 65.9391 26.5629H65.8905L66.0841 24.7773H63.1303C62.9881 25.9824 62.7185 27.8176 62.4521 29.1928L60.127 41.3725H63.4721L64.3922 36.4509H64.4634C64.4634 36.4509 65.1497 36.8854 66.4256 36.8854C70.3503 36.8854 72.9176 32.8803 72.9176 28.8271C72.9141 26.5835 71.924 24.5781 69.4769 24.5781ZM66.28 34.376C65.7768 34.3834 65.2874 34.2126 64.8992 33.894L65.4564 30.7814C65.8436 28.7065 66.9339 27.3314 68.0962 27.3314C69.114 27.3314 69.4287 28.272 69.4287 29.1652C69.4264 31.3123 68.1453 34.376 66.28 34.376Z" fill="white"/>
<path d="M77.6896 19.8027C77.4363 19.802 77.1852 19.8516 76.951 19.9486C76.7169 20.0456 76.5047 20.1882 76.3261 20.3679C76.1482 20.5476 76.008 20.7609 75.9131 20.9953C75.8191 21.2297 75.7722 21.4805 75.7767 21.733C75.7767 22.7254 76.4063 23.3974 77.351 23.3974H77.3992C78.4414 23.3974 79.3375 22.6978 79.3614 21.4672C79.3614 20.5024 78.7075 19.8027 77.6896 19.8027Z" fill="white"/>
<path d="M73.0146 36.644H76.3576L78.6345 24.8457H75.2672L73.0146 36.644Z" fill="white"/>
<path d="M87.137 24.8214H84.8118L84.9329 24.2671C85.1265 23.1329 85.8048 22.1192 86.9194 22.1192C87.2817 22.1198 87.6424 22.177 87.9867 22.2886L88.6388 19.6864C88.6388 19.6864 88.0574 19.3965 86.8216 19.3965C85.6354 19.3965 84.448 19.7346 83.5522 20.5066C82.4133 21.4713 81.8801 22.8706 81.6139 24.2706L81.5171 24.825H79.9671L79.4824 27.3343H81.0325L79.2639 36.6473H82.6091L84.3735 27.3308H86.6744L87.137 24.8214Z" fill="white"/>
<path d="M95.18 24.8457C95.18 24.8457 93.0903 30.0913 92.1517 32.9522H92.1041C92.0393 32.0307 91.2799 24.8457 91.2799 24.8457H87.7673L89.7781 35.6785C89.8266 35.9195 89.8024 36.0648 89.7068 36.2336C89.319 36.9814 88.665 37.7051 87.8897 38.2361C87.26 38.6947 86.5575 38.9839 86.001 39.1767L86.9211 42.0001C87.5996 41.8583 89.0043 41.2998 90.1953 40.1904C91.7211 38.767 93.1261 36.571 94.5794 33.5796L98.6734 24.8457H95.18Z" fill="white"/>
</svg>
